X: 457
T: Lihongtai zhonggua
%%abc-version 2.0
%%abcx-abcm2ps-target-version 5.9.1 (29 Sep 2008)
%%abc-creator hum2abc beta
%%abcx-conversion-date 2013/10/02 07:52:30
%%abc-edited-by Helmut Schaffrath
%%humdrum-veritas 28932812
%%humdrum-veritas-data 3039196777
%%continueall 1
%%barnumbers 0
L: 1/8
M: 2/4
K: Bb
c Bc2 [I:setbarnb 1]| 
c f e f | 
c2B c | 
f d/ c/ B F | 
B FB2 | 
c d c B | 
G F/ G/ B G | 
F4 |]  



